X:130
T:Atholl Highlanders, The
R:jig
Z:id:hn-jig-130
M:6/8
K:A
~e3 ecA|ecA Bcd|~e3 ecA|Bcd cBA|~e3 ecA|ecA Bcd|eae fed|1 cdB Acd:|2 cdB A2A||
Ace Ace|Bdf Bdf|Ace Ace|Bcd cBA|Ace Ace|Bdf Bdf|eae fed|cdB A2A:|
a2e edc|a2e edc|a2e edc|Bcd efg|a2e edc|a2e edc|~e3 fed|1 cdB A2A:|2 cdB A2B||
c2c cAc|d2d dBd|c2c cAc|B2B B=GB|c2c cAc|d2d dBd|eae fed|1 cdB A2B:|2 cdB Acd||

